app/component-library/components/Icons/Icon/assets/book.svg

<svg width="24" height="24" viewBox="0 0 24 24" fill="none" xmlns="http://www.w3.org/2000/svg">
<path d="M22.2812 4.85018V16.7402C22.2812 17.7102 21.4913 18.6002 20.5212 18.7202L20.2113 18.7602C18.5713 18.9802 16.2613 19.6602 14.4012 20.4402C13.7512 20.7102 13.0312 20.2202 13.0312 19.5102V5.60018C13.0312 5.23018 13.2412 4.89018 13.5712 4.71018C15.4012 3.72018 18.1713 2.84018 20.0513 2.68018H20.1112C21.3112 2.68018 22.2812 3.65018 22.2812 4.85018Z" fill="currentColor"/>
<path d="M10.9915 4.71018C9.16148 3.72018 6.39148 2.84018 4.51148 2.68018H4.44148C3.24148 2.68018 2.27148 3.65018 2.27148 4.85018V16.7402C2.27148 17.7102 3.06148 18.6002 4.03148 18.7202L4.34148 18.7602C5.98148 18.9802 8.29148 19.6602 10.1515 20.4402C10.8015 20.7102 11.5215 20.2202 11.5215 19.5102V5.60018C11.5215 5.22018 11.3215 4.89018 10.9915 4.71018ZM5.28148 7.74018H7.53148C7.94148 7.74018 8.28148 8.08018 8.28148 8.49018C8.28148 8.91018 7.94148 9.24018 7.53148 9.24018H5.28148C4.87148 9.24018 4.53148 8.91018 4.53148 8.49018C4.53148 8.08018 4.87148 7.74018 5.28148 7.74018ZM8.28148 12.2402H5.28148C4.87148 12.2402 4.53148 11.9102 4.53148 11.4902C4.53148 11.0802 4.87148 10.7402 5.28148 10.7402H8.28148C8.69148 10.7402 9.03148 11.0802 9.03148 11.4902C9.03148 11.9102 8.69148 12.2402 8.28148 12.2402Z" fill="currentColor"/>
</svg>

<svg xmlns="http://www.w3.org/2000/svg" width="24" height="24" viewBox="0 0 24 24" fill="none"><path d="M22.281 4.85v11.89c0 .97-.79 1.86-1.76 1.98l-.31.04c-1.64.22-3.95.9-5.81 1.68-.65.27-1.37-.22-1.37-.93V5.6c0-.37.21-.71.54-.89 1.83-.99 4.6-1.87 6.48-2.03h.06c1.2 0 2.17.97 2.17 2.17zM10.992 4.71c-1.83-.99-4.6-1.87-6.48-2.03h-.07c-1.2 0-2.17.97-2.17 2.17v11.89c0 .97.79 1.86 1.76 1.98l.31.04c1.64.22 3.95.9 5.81 1.68.65.27 1.37-.22 1.37-.93V5.6a1 1 0 0 0-.53-.89zm-5.71 3.03h2.25a.749.749 0 1 1 0 1.5h-2.25a.749.749 0 1 1 0-1.5zm3 4.5h-3a.749.749 0 1 1 0-1.5h3a.749.749 0 1 1 0 1.5z" fill="currentColor"/></svg>
